assets/img/cds-offline-first.svg

<svg fill="none" height="71" viewBox="0 0 81 71" width="81" xmlns="http://www.w3.org/2000/svg"><g fill="#7c3aed"><path d="m21.1111 17.8197 41.7037 41.7037c.5666.5666 1.1164 1.1502 1.6916 1.6916l.0761.0761c.2453-.9388.499-1.886.7443-2.8249-.1015.0169-.203.0338-.313.0508.0677-.0085.3214-.0339-.0169 0-.186.0169-.3637.0422-.5497.0507-.3975.0338-.795.0423-1.1925.0423h-.0592-.4229-1.9623-7.3327-9.9969-10.4028-8.5506-4.4403-.3467c-.406 0-.812-.0169-1.2264-.0508-.1776-.0169-.3552-.0253-.5244-.0507-.1014-.0085-.2029-.0254-.296-.0338-.203-.0169.2537.0423-.0676-.0085-.7612-.1269-1.5055-.2791-2.2498-.4821-.3552-.1015-.702-.2114-1.0487-.3298-.1861-.0677-.3637-.1353-.5497-.203-.0931-.0338-.1777-.0677-.2707-.1099-.296-.1185.1184.0592-.0677-.0254-.5835-.2791-1.1671-.5498-1.7253-.8711-.5581-.3214-1.0994-.6682-1.6153-1.0403-.10996-.0846-.22837-.1692-.33831-.2538-.18606-.1353.2368.1946.0592.0423-.0592-.0507-.12686-.1015-.18606-.1522-.24526-.203-.49054-.406-.72735-.6259-.4567-.4144-.8965-.8542-1.31093-1.3109-.21144-.2368-.42288-.4821-.62586-.7274-.04229-.0507-.31293-.4059-.16916-.2029.14378.186-.01692-.017-.05075-.0677-.0592-.0761-.1184-.1607-.1776-.2453-.72735-1.0149-1.35321-2.0974-1.86063-3.2392-.03383-.0676-.06766-.1522-.09303-.2199.12686.3722.0592.1523.03383.0677-.0592-.1522-.11841-.3045-.1776-.4567-.11841-.3045-.2199-.6174-.32139-.9303-.19452-.6259-.36368-1.2687-.49054-1.9199-.0592-.2876-.10149-.5751-.14378-.8627-.05075-.3214.01691.0423.00846.0761.01691-.0507-.02538-.186-.03383-.2537-.01692-.186-.04229-.3806-.05075-.5666-.05074-.6513-.06766-1.3025-.05074-1.9538.00845-.3045.02537-.6005.04229-.8965.00845-.1607.02537-.3129.04228-.4736.01692-.1353.03383-.6851.01692-.1945.01692-.5836.20298-1.2179.3383-1.7846.14378-.5835.31293-1.1587.50745-1.7169.10149-.2876.21144-.5751.32138-.8542.10995-.2876-.14378.3213.03383-.0677.06766-.1607.14378-.3129.21145-.4652.50744-1.0741 1.12485-2.0974 1.83526-3.0531.22836-.3045-.14378.1691.04229-.0592.09303-.1184.18606-.2368.28756-.3468.19452-.2283.38904-.4567.59202-.6766.40597-.4398.83731-.8627 1.2771-1.2686.19452-.1776.3975-.3468.60048-.5159.10995-.0931.22836-.2199.35522-.2791-.03383.0169-.31292.2368-.07611.0592.07611-.0592.15223-.11.2284-.1692.4736-.3468.9641-.6681 1.4631-.9642.5244-.3044 1.0572-.592 1.607-.8457.1184-.0592.2453-.11.3637-.1607.2114-.0931-.3045.1184-.0846.0338.0677-.0254.1438-.0592.2115-.0846.2875-.1099.5751-.2199.8626-.3214.5667-.1945 1.1418-.3552 1.7253-.4905.7528-.1776 1.7931-.1692 2.3597-.7358.3214-.3214.4652-.8035.6597-1.201.1692-.3467.3468-.6935.5244-1.0403.3637-.6766.7612-1.3447 1.1925-1.9876.203-.3044.406-.6005.6174-.888.1015-.1353.203-.2707.3045-.406.1522-.203-.1607.203 0 0 .0592-.0761.1184-.1522.1776-.2283.4651-.5836.9557-1.1418 1.4716-1.6831.6089-.6428.6851-1.7677 0-2.3936-.6597-.6089-1.7423-.6851-2.3936 0-2.1651 2.2751-3.9497 4.8969-5.2099 7.7726.3383-.2622.6766-.5159 1.0149-.7781-4.787.685-9.32866 3.2645-12.37346 7.0282-3.19699 3.9582-4.888423 9.0073-4.4824599 14.1073.4228829 5.2606 2.8924699 10.2759 6.9521099 13.6843 3.66221 3.0701 8.24611 4.7447 13.03301 4.7531h4.0512 8.0431 9.9884 9.9124 7.7048 3.4761c1.0149 0 2.013-.11 3.0109-.2707 1.294-.2114 1.5732-2.0044.7443-2.8249l-41.7037-41.7037c-.5666-.5666-1.1164-1.1417-1.6916-1.6916l-.0761-.0761c-.6258-.6259-1.776-.6766-2.3935 0-.6259.6597-.6682 1.7085 0 2.3766z"/><path d="m30.5594 12.7115c.203-.0931.3975-.1861.6005-.2791.1099-.0508.2283-.1015.3383-.1438-.0592.0254-.2961.1184 0 0 .4144-.1692.8288-.3214 1.2432-.4736.8712-.3045 1.7592-.5582 2.6557-.7612.4145-.093.8373-.1776 1.2602-.2537.2284-.0423.4483-.0762.6766-.11.0846-.0169.4229-.0592.0761-.0084.1269-.017.2538-.0339.3806-.0423.9473-.11 1.903-.1607 2.8586-.1607.7274 0 1.4547.0338 2.182.093.3383.0254.6766.0677 1.0149.11.2622.0253-.4313-.0677-.0338-.0085.0761.0085.1607.0254.2368.0338.1945.0339.389.0592.5836.0931 1.387.2452 2.7486.6004 4.0681 1.0741.3299.1184.6512.2368.9726.3721.0677.0254.1438.0592.2115.0846.2791.1099-.0508-.0254-.0846-.0339.1861.0423.406.1776.5751.2538.6259.2875 1.2348.6004 1.8353.9388.6174.3467 1.2094.7188 1.793 1.1079.2538.1692.499.3468.7443.5244.1438.1099.3299.2114.4567.3383-.0254-.0254-.3045-.2368-.0761-.0592.093.0676.1776.1437.2706.2114 1.0572.8542 2.0552 1.8014 2.9602 2.8164.2284.2537.4483.5159.6682.7781.093.1184.1945.2368.2876.3552.0422.0507.1099.1184.1437.1776-.2029-.3721-.0592-.0761.0085.0169.4144.5498.8035 1.108 1.1671 1.6831.4229.6597.8035 1.3363 1.1587 2.0383.1861.3553.3553.7189.5244 1.0826.0761.1776.1522.3552.2284.5244-.017-.0423-.1523-.3637-.0339-.0846.0423.1099.0846.2114.1269.3214.5836 1.4885 1.0234 3.0278 1.3194 4.5924.1015.5159.6512 1.0995 1.184 1.184 1.0234.1607 2.0213.4145 2.994.7781.1268.0508.2537.0931.3805.1438.2961.1184-.2706-.1269.0169.0085.2453.1099.4906.2199.7274.3383.4398.2199.8796.4651 1.294.7273.2115.1353.4144.2707.6174.406.11.0761.2199.1522.3214.2283.0592.0423.3721.3045.1945.1438-.1945-.1691.1438.1184.1861.1523.0846.0761.1776.1437.2622.2199.2029.1691.3975.3552.592.5328.3552.3383.6935.6935 1.0149 1.0656.1607.1861.3129.3806.4736.5667.1184.1438-.093-.1184-.093-.1184.0423.0338.1099.1438.1353.1861.0761.1099.1522.2114.2284.3213.5751.8289 1.0656 1.717 1.4801 2.6387.1268.2791-.1269-.3214.0338.0761.0423.11.0846.2115.1268.3214.0931.2538.1861.5075.2622.7697.1523.4821.2791.9726.3806 1.4716.0508.2537.1015.499.1353.7527.0085.0592.0169.1184.0254.1776.0338.1945-.0169-.1522-.0169-.1522 0 .1522.0338.3214.0507.4736.0508.5498.0762 1.108.0677 1.6577 0 .2791-.0169.5582-.0338.8373-.0085.1607-.0254.3214-.0423.4821-.0085.0677-.0169.1353-.0254.203-.0085.0423-.0423.3468-.0085.1184.0339-.2199-.0422.2622-.0507.3129-.0254.1354-.0507.2707-.0761.3975-.0592.313-.1353.6174-.2115.9219-.1607.6259-.3383 1.3278-.6343 1.903.0085-.0084.1184-.2706.0423-.1015-.0338.0846-.0677.1607-.1099.2453-.0677.1438-.1269.2791-.1946.4229-.1437.296-.3044.5835-.4651.8711-.3299.5751-.702 1.1164-1.0911 1.6407-.1099.1522.0592-.0677.0677-.0846-.0592.0931-.1353.1692-.203.2538-.093.1184-.1945.2368-.296.3467-.2284.2622-.4736.5159-.7189.7612-.6259.6259-.6766 1.776 0 2.3936.6766.6174 1.7253.6681 2.3936 0 1.903-1.9114 3.3323-4.2372 4.1864-6.8.8627-2.5626 1.0319-5.2944.6513-7.9586-.6597-4.6262-3.3662-8.762-7.1382-11.46-2.0637-1.4801-4.5163-2.478-7.0282-2.884l1.184 1.1841c-1.1164-5.8864-4.288-11.3755-8.8297-15.2913-4.6855-4.03432-10.6058-6.39401-16.7876-6.62228-4.4148-.16916-8.7873.79501-12.7709 2.68106-.8035.38062-1.0741 1.59002-.6089 2.31732.5497.8542 1.4716 1.0487 2.3258.6343z"/><path d="m6.67485 3.38233 63.92265 63.92267c.8627.8626 1.7253 1.7423 2.5965 2.5964l.1099.11c.6259.6259 1.7761.6766 2.3936 0 .6174-.6766.6681-1.7253 0-2.3936-.592-.592-1.1925-1.1925-1.7845-1.7845-1.6239-1.6239-3.2393-3.2392-4.8631-4.8631-2.3851-2.385-4.7785-4.7784-7.1635-7.1635-2.9094-2.9093-5.8273-5.8273-8.7367-8.7366-3.1884-3.1885-6.3769-6.377-9.5656-9.5656l-26.3373-26.33739c-1.8268-1.82676-3.6452-3.64517-5.4721-5.47208-.8627-.86267-1.7253-1.74232-2.59649-2.59647-.03383-.03383-.07612-.07612-.10995-.109948-.62586-.625865-1.77603-.676606-2.39356 0-.61753.676608-.66815 1.725308 0 2.393558z"/></g></svg>

<svg width="81" height="71" viewBox="0 0 81 71" fill="none" xmlns="http://www.w3.org/2000/svg">
<path d="M21.1111 17.8197L62.8148 59.5234C63.3814 60.09 63.9312 60.6736 64.5064 61.215L64.5825 61.2911C64.8278 60.3523 65.0815 59.4051 65.3268 58.4662C65.2253 58.4831 65.1238 58.5 65.0138 58.517C65.0815 58.5085 65.3352 58.4831 64.9969 58.517C64.8109 58.5339 64.6332 58.5592 64.4472 58.5677C64.0497 58.6015 63.6522 58.61 63.2547 58.61H63.1955H62.7726H60.8103H53.4776H43.4807H33.0779H24.5273H20.087H19.7403C19.3343 58.61 18.9283 58.5931 18.5139 58.5592C18.3363 58.5423 18.1587 58.5339 17.9895 58.5085C17.8881 58.5 17.7866 58.4831 17.6935 58.4747C17.4905 58.4578 17.9472 58.517 17.6259 58.4662C16.8647 58.3393 16.1204 58.1871 15.3761 57.9841C15.0209 57.8826 14.6741 57.7727 14.3274 57.6543C14.1413 57.5866 13.9637 57.519 13.7777 57.4513C13.6846 57.4175 13.6 57.3836 13.507 57.3414C13.211 57.2229 13.6254 57.4006 13.4393 57.316C12.8558 57.0369 12.2722 56.7662 11.714 56.4449C11.1559 56.1235 10.6146 55.7767 10.0987 55.4046C9.98874 55.32 9.87033 55.2354 9.76039 55.1508C9.57433 55.0155 9.99719 55.3454 9.81959 55.1931C9.76039 55.1424 9.69273 55.0916 9.63353 55.0409C9.38827 54.8379 9.14299 54.6349 8.90618 54.415C8.44948 54.0006 8.00968 53.5608 7.59525 53.1041C7.38381 52.8673 7.17237 52.622 6.96939 52.3767C6.9271 52.326 6.65646 51.9708 6.80023 52.1738C6.94401 52.3598 6.78331 52.1568 6.74948 52.1061C6.69028 52.03 6.63108 51.9454 6.57188 51.8608C5.84453 50.8459 5.21867 49.7634 4.71125 48.6216C4.67742 48.554 4.64359 48.4694 4.61822 48.4017C4.74508 48.7739 4.67742 48.554 4.65205 48.4694C4.59285 48.3172 4.53364 48.1649 4.47445 48.0127C4.35604 47.7082 4.25455 47.3953 4.15306 47.0824C3.95854 46.4565 3.78938 45.8137 3.66252 45.1625C3.60332 44.8749 3.56103 44.5874 3.51874 44.2998C3.46799 43.9784 3.53565 44.3421 3.5272 44.3759C3.54411 44.3252 3.50182 44.1899 3.49337 44.1222C3.47645 43.9362 3.45108 43.7416 3.44262 43.5556C3.39188 42.9043 3.37496 42.2531 3.39188 41.6018C3.40033 41.2973 3.41725 41.0013 3.43417 40.7053C3.44262 40.5446 3.45954 40.3924 3.47645 40.2317C3.49337 40.0964 3.51028 39.5466 3.49337 40.0372C3.51029 39.4536 3.69635 38.8193 3.83167 38.2526C3.97545 37.6691 4.1446 37.0939 4.33912 36.5357C4.44061 36.2481 4.55056 35.9606 4.6605 35.6815C4.77045 35.3939 4.51672 36.0028 4.69433 35.6138C4.76199 35.4531 4.83811 35.3009 4.90578 35.1486C5.41322 34.0745 6.03063 33.0512 6.74104 32.0955C6.9694 31.791 6.59726 32.2646 6.78333 32.0363C6.87636 31.9179 6.96939 31.7995 7.07089 31.6895C7.26541 31.4612 7.45993 31.2328 7.66291 31.0129C8.06888 30.5731 8.50022 30.1502 8.94001 29.7443C9.13453 29.5667 9.33751 29.3975 9.54049 29.2284C9.65044 29.1353 9.76885 29.0085 9.89571 28.9493C9.86188 28.9662 9.58279 29.1861 9.8196 29.0085C9.89571 28.9493 9.97183 28.8985 10.048 28.8393C10.5216 28.4925 11.0121 28.1712 11.5111 27.8751C12.0355 27.5707 12.5683 27.2831 13.1181 27.0294C13.2365 26.9702 13.3634 26.9194 13.4818 26.8687C13.6932 26.7756 13.1773 26.9871 13.3972 26.9025C13.4649 26.8771 13.541 26.8433 13.6087 26.8179C13.8962 26.708 14.1838 26.598 14.4713 26.4965C15.038 26.302 15.6131 26.1413 16.1966 26.006C16.9494 25.8284 17.9897 25.8368 18.5563 25.2702C18.8777 24.9488 19.0215 24.4667 19.216 24.0692C19.3852 23.7225 19.5628 23.3757 19.7404 23.0289C20.1041 22.3523 20.5016 21.6842 20.9329 21.0413C21.1359 20.7369 21.3389 20.4408 21.5503 20.1533C21.6518 20.018 21.7533 19.8826 21.8548 19.7473C22.007 19.5443 21.6941 19.9503 21.8548 19.7473C21.914 19.6712 21.9732 19.5951 22.0324 19.519C22.4975 18.9354 22.9881 18.3772 23.504 17.8359C24.1129 17.1931 24.1891 16.0682 23.504 15.4423C22.8443 14.8334 21.7617 14.7572 21.1104 15.4423C18.9453 17.7174 17.1607 20.3392 15.9005 23.2149C16.2388 22.9527 16.5771 22.699 16.9154 22.4368C12.1284 23.1218 7.58674 25.7013 4.54194 29.465C1.34495 33.4232 -0.346483 38.4723 0.0594801 43.5723C0.482363 48.8329 2.95195 53.8482 7.01159 57.2566C10.6738 60.3267 15.2577 62.0013 20.0446 62.0097H24.0958H32.1389H42.1273H52.0397H59.7445H63.2206C64.2355 62.0097 65.2336 61.8997 66.2315 61.739C67.5255 61.5276 67.8047 59.7346 66.9758 58.9141L25.2721 17.2104C24.7055 16.6438 24.1557 16.0687 23.5805 15.5188L23.5044 15.4427C22.8786 14.8168 21.7284 14.7661 21.1109 15.4427C20.485 16.1024 20.4427 17.1512 21.1109 17.8193L21.1111 17.8197Z" fill="#7c3aed"/>
<path d="M30.5594 12.7115C30.7624 12.6184 30.9569 12.5254 31.1599 12.4324C31.2698 12.3816 31.3882 12.3309 31.4982 12.2886C31.439 12.314 31.2021 12.407 31.4982 12.2886C31.9126 12.1194 32.327 11.9672 32.7414 11.815C33.6126 11.5105 34.5006 11.2568 35.3971 11.0538C35.8116 10.9608 36.2344 10.8762 36.6573 10.8001C36.8857 10.7578 37.1056 10.7239 37.3339 10.6901C37.4185 10.6732 37.7568 10.6309 37.41 10.6817C37.5369 10.6647 37.6638 10.6478 37.7906 10.6394C38.7379 10.5294 39.6936 10.4787 40.6492 10.4787C41.3766 10.4787 42.1039 10.5125 42.8312 10.5717C43.1695 10.5971 43.5078 10.6394 43.8461 10.6817C44.1083 10.707 43.4148 10.614 43.8123 10.6732C43.8884 10.6817 43.973 10.6986 44.0491 10.707C44.2436 10.7409 44.4381 10.7662 44.6327 10.8001C46.0197 11.0453 47.3813 11.4005 48.7008 11.8742C49.0307 11.9926 49.352 12.111 49.6734 12.2463C49.7411 12.2717 49.8172 12.3055 49.8849 12.3309C50.164 12.4408 49.8341 12.3055 49.8003 12.297C49.9864 12.3393 50.2063 12.4746 50.3754 12.5508C51.0013 12.8383 51.6102 13.1512 52.2107 13.4896C52.8281 13.8363 53.4201 14.2084 54.0037 14.5975C54.2575 14.7667 54.5027 14.9443 54.748 15.1219C54.8918 15.2318 55.0779 15.3333 55.2047 15.4602C55.1793 15.4348 54.9002 15.2234 55.1286 15.401C55.2216 15.4686 55.3062 15.5447 55.3992 15.6124C56.4564 16.4666 57.4544 17.4138 58.3594 18.4288C58.5878 18.6825 58.8077 18.9447 59.0276 19.2069C59.1206 19.3253 59.2221 19.4437 59.3152 19.5621C59.3574 19.6128 59.4251 19.6805 59.4589 19.7397C59.256 19.3676 59.3997 19.6636 59.4674 19.7566C59.8818 20.3064 60.2709 20.8646 60.6345 21.4397C61.0574 22.0994 61.438 22.776 61.7932 23.478C61.9793 23.8333 62.1485 24.1969 62.3176 24.5606C62.3937 24.7382 62.4698 24.9158 62.546 25.085C62.529 25.0427 62.3937 24.7213 62.5121 25.0004C62.5544 25.1103 62.5967 25.2118 62.639 25.3218C63.2226 26.8103 63.6624 28.3496 63.9584 29.9142C64.0599 30.4301 64.6096 31.0137 65.1424 31.0982C66.1658 31.2589 67.1637 31.5127 68.1364 31.8763C68.2632 31.9271 68.3901 31.9694 68.5169 32.0201C68.813 32.1385 68.2463 31.8932 68.5338 32.0286C68.7791 32.1385 69.0244 32.2485 69.2612 32.3669C69.701 32.5868 70.1408 32.832 70.5552 33.0942C70.7667 33.2295 70.9696 33.3649 71.1726 33.5002C71.2826 33.5763 71.3925 33.6524 71.494 33.7285C71.5532 33.7708 71.8661 34.033 71.6885 33.8723C71.494 33.7032 71.8323 33.9907 71.8746 34.0246C71.9592 34.1007 72.0522 34.1683 72.1368 34.2445C72.3397 34.4136 72.5343 34.5997 72.7288 34.7773C73.084 35.1156 73.4223 35.4708 73.7437 35.8429C73.9044 36.029 74.0566 36.2235 74.2173 36.4096C74.3357 36.5534 74.1243 36.2912 74.1243 36.2912C74.1666 36.325 74.2342 36.435 74.2596 36.4773C74.3357 36.5872 74.4118 36.6887 74.488 36.7986C75.0631 37.6275 75.5536 38.5156 75.9681 39.4373C76.0949 39.7164 75.8412 39.1159 76.0019 39.5134C76.0442 39.6234 76.0865 39.7249 76.1287 39.8348C76.2218 40.0886 76.3148 40.3423 76.3909 40.6045C76.5432 41.0866 76.67 41.5771 76.7715 42.0761C76.8223 42.3298 76.873 42.5751 76.9068 42.8288C76.9153 42.888 76.9237 42.9472 76.9322 43.0064C76.966 43.2009 76.9153 42.8542 76.9153 42.8542C76.9153 43.0064 76.9491 43.1756 76.966 43.3278C77.0168 43.8776 77.0422 44.4358 77.0337 44.9855C77.0337 45.2646 77.0168 45.5437 76.9999 45.8228C76.9914 45.9835 76.9745 46.1442 76.9576 46.3049C76.9491 46.3726 76.9407 46.4402 76.9322 46.5079C76.9237 46.5502 76.8899 46.8547 76.9237 46.6263C76.9576 46.4064 76.8815 46.8885 76.873 46.9392C76.8476 47.0746 76.8223 47.2099 76.7969 47.3367C76.7377 47.6497 76.6616 47.9541 76.5854 48.2586C76.4247 48.8845 76.2471 49.5864 75.9511 50.1616C75.9596 50.1532 76.0695 49.891 75.9934 50.0601C75.9596 50.1447 75.9257 50.2208 75.8835 50.3054C75.8158 50.4492 75.7566 50.5845 75.6889 50.7283C75.5452 51.0243 75.3845 51.3118 75.2238 51.5994C74.8939 52.1745 74.5218 52.7158 74.1327 53.2401C74.0228 53.3923 74.1919 53.1724 74.2004 53.1555C74.1412 53.2486 74.0651 53.3247 73.9974 53.4093C73.9044 53.5277 73.8029 53.6461 73.7014 53.756C73.473 54.0182 73.2278 54.2719 72.9825 54.5172C72.3566 55.1431 72.3059 56.2932 72.9825 56.9108C73.6591 57.5282 74.7078 57.5789 75.3761 56.9108C77.2791 54.9994 78.7084 52.6736 79.5625 50.1108C80.4252 47.5482 80.5944 44.8164 80.2138 42.1522C79.5541 37.526 76.8476 33.3902 73.0756 30.6922C71.0119 29.2121 68.5593 28.2142 66.0474 27.8082L67.2314 28.9923C66.115 23.1059 62.9434 17.6168 58.4017 13.701C53.7162 9.66668 47.7959 7.30699 41.6141 7.07872C37.1993 6.90956 32.8268 7.87373 28.8432 9.75978C28.0397 10.1404 27.7691 11.3498 28.2343 12.0771C28.784 12.9313 29.7059 13.1258 30.5601 12.7114L30.5594 12.7115Z" fill="#7c3aed"/>
<path d="M6.67485 3.38233L70.5975 67.305C71.4602 68.1676 72.3228 69.0473 73.194 69.9014L73.3039 70.0114C73.9298 70.6373 75.08 70.688 75.6975 70.0114C76.3149 69.3348 76.3656 68.2861 75.6975 67.6178C75.1055 67.0258 74.505 66.4253 73.913 65.8333C72.2891 64.2094 70.6737 62.5941 69.0499 60.9702C66.6648 58.5852 64.2714 56.1918 61.8864 53.8067C58.977 50.8974 56.0591 47.9794 53.1497 45.0701C49.9613 41.8816 46.7728 38.6931 43.5841 35.5045L17.2468 9.16711C15.42 7.34035 13.6016 5.52194 11.7747 3.69503C10.912 2.83236 10.0494 1.95271 9.17821 1.09856C9.14438 1.06473 9.10209 1.02244 9.06826 0.988612C8.4424 0.362747 7.29223 0.312006 6.6747 0.988612C6.05717 1.66522 6.00655 2.71392 6.6747 3.38217L6.67485 3.38233Z" fill="#7c3aed"/>
</svg>
